X:206
T: HINTERM OFEN HINTERM OFEN
N: K2617
O: Europa, Mitteleuropa, Deutschland, Kassel
R: Kinder -, Vexier - Lied, Gesellschafts - Spiel
M: 2/4
L: 1/16
K: G
 | G2FED2D2 | G2FED2D2 |
E2E2F2F2 | G4G2z2 |
G2B2B2d2 | d2c2A4 |
A2c2c2e2 | e2d2B4 |
G2FED2D2 | G2FED2D2 |
E2E2F2F2 | G4G2z2

